X:808
T:Rannoch Lodge
R:Strathspey
C:William MacLeish
B:The Athole Collection
M:C|
L:1/8
K:A
d|c>de>c f>de>d|c>de>c f/e/d/c/ Bd|c>de>c f>de>c|d/c/B/A/ GB c>AA:|
E|C>EA>E FEAE|C>EA>c B<B, B,>D|C>EA>E F>EA>E|(3cde (3Bcd c<A A>E|
C>EA>E FEAE|C>EA>c B<B, B,>D|C>EA>c D>FB>c|d/c/B/A/ GB c<AA:|

